X: 313
T:Scarce O' Tatties
C: arr. T. S. Macdonald
M:6/8
K:Em clef=bass
%%staves { 1 2 }
V:1
%% transpose AA,
"Am"Aee efg|edB "G"dBG|"Am"Aee efg|"Em"edB "Am"A3|
"Am"aAA "G"gAA|"F#m"fAA "Em"eAA|"Am"Aee efg|"Em"edB "Am"A3:|
|: "Am"aeg a2e|"G"g2f eAA|"Am"aeg a2e|"G"g2f e3|
"Am"eee A2A|"D"dff fee|"Am"Aee efg|"Em"edB "Am"A3:|]
V:2
L:1/8
"1"A,3 A,3 | "1"A,3 "0"G,3 | "1"A,3 A,3 | "0"G,3 "1"A,3 |
"0"A3 "4"G3 | "3"F3 "1"E3 | "1"A,3 A,3 | "0"G,3 "1"A,3 :|
|: "1"A,3 A,3 | "0"G,3 G,3 | "1"A,3 A,3 | "0"G,3 G,3 |
"1"A,3 A,3 | "0"D3 D3 | "1"A,3 A,3 | "0"G,3 "1"A,3 :|]
